assets/img/braze_icons/users-edit.svg

<svg fill="none" height="24" viewBox="0 0 24 24" width="24" xmlns="http://www.w3.org/2000/svg"><g clip-rule="evenodd" fill="#801ed7" fill-rule="evenodd"><path d="m18.7929 11.2929c.9428-.9428 2.4714-.9428 3.4142-.0001.9429.9429.9429 2.4715 0 3.4144-2.2279 2.2279-4.4603 4.4515-6.6839 6.6838-.0991.0995-.2239.2249-.3721.3282-.1288.0898-.2677.1642-.4138.2215-.1836.072-.3734.1063-.5162.1349l-2.0251.405c-.3279.0656-.6668-.0371-.9033-.2735-.2364-.2365-.339-.5754-.2734-.9033.1375-.6872.2763-1.3742.4124-2.0617.0273-.1377.0616-.3112.1276-.4794.0573-.1462.1317-.285.2215-.4138.1033-.1482.2286-.273.3281-.3721 2.2324-2.2236 4.456-4.456 6.684-6.6839z"/><path d="m8.18099 14.1635c.28225.1438.51172.3733.65553.6555.15307.3004.16362.6286.16349.9579v.0231c0 1.4744-.00054 2.9488 0 4.4231.00005.1191.0001.2614-.01014.3867-.01186.1452-.0423.3532-.15335.5712-.14381.2822-.37328.5117-.65553.6555-.21794.1111-.42594.1415-.57115.1534-.12532.0102-.26758.0102-.38669.0101h-4.44633c-.11927.0001-.26184.0001-.38746-.0102-.14572-.012-.35413-.0426-.57241-.1542-.2826-.1445-.51267-.3756-.65586-.6589-.1103-.2182-.14022-.4261-.15159-.5721-.009763-.1255-.00906-.2677-.00847-.3861.00516-1.0393-.025827-2.1532.37958-3.1319.50747-1.2252 1.48084-2.1985 2.70598-2.706.5097-.2111 1.04798-.2987 1.65672-.3402l1.47984-.0404c.32926-.0001.65743.0104.95784.1635z"/><path d="m14.5731 2.91554c.2072-.51193.7902-.75894 1.3021-.55172 1.8306.74099 3.1248 2.53624 3.1248 4.63618s-1.2942 3.8952-3.1248 4.6362c-.5119.2072-1.0949-.0398-1.3021-.5517-.2073-.512.0398-1.09497.5517-1.3022 1.1013-.44578 1.8752-1.52486 1.8752-2.7823s-.7739-2.33652-1.8752-2.7823c-.5119-.20723-.759-.79022-.5517-1.30216z"/><path d="m4.50001 7c0-2.76142 2.23857-5 5-5 2.76139 0 4.99999 2.23858 4.99999 5s-2.2386 5-4.99999 5c-2.76143 0-5-2.23858-5-5z"/></g></svg>

<svg width="24" height="24" viewBox="0 0 24 24" fill="none" xmlns="http://www.w3.org/2000/svg">
<path fill-rule="evenodd" clip-rule="evenodd" d="M18.7929 11.2929C19.7357 10.3501 21.2643 10.3501 22.2071 11.2928C23.15 12.2357 23.15 13.7643 22.2071 14.7072C19.9792 16.9351 17.7468 19.1587 15.5232 21.391C15.4241 21.4905 15.2993 21.6159 15.1511 21.7192C15.0223 21.809 14.8834 21.8834 14.7373 21.9407C14.5537 22.0127 14.3639 22.047 14.2211 22.0756L12.196 22.4806C11.8681 22.5462 11.5292 22.4435 11.2927 22.2071C11.0563 21.9706 10.9537 21.6317 11.0193 21.3038C11.1568 20.6166 11.2956 19.9296 11.4317 19.2421C11.459 19.1044 11.4933 18.9309 11.5593 18.7627C11.6166 18.6165 11.691 18.4777 11.7808 18.3489C11.8841 18.2007 12.0094 18.0759 12.1089 17.9768C14.3413 15.7532 16.5649 13.5208 18.7929 11.2929Z" fill="#801ED7"/>
<path fill-rule="evenodd" clip-rule="evenodd" d="M8.18099 14.1635C8.46324 14.3073 8.69271 14.5368 8.83652 14.819C8.98959 15.1194 9.00014 15.4476 9.00001 15.7769C9.00001 15.7847 9.00001 15.7924 9.00001 15.8C9.00001 17.2744 8.99947 18.7488 9.00001 20.2231C9.00006 20.3422 9.00011 20.4845 8.98987 20.6098C8.97801 20.755 8.94757 20.963 8.83652 21.181C8.69271 21.4632 8.46324 21.6927 8.18099 21.8365C7.96305 21.9476 7.75505 21.978 7.60984 21.9899C7.48452 22.0001 7.34226 22.0001 7.22315 22H2.77682C2.65755 22.0001 2.51498 22.0001 2.38936 21.9898C2.24364 21.9778 2.03523 21.9472 1.81695 21.8356C1.53435 21.6911 1.30428 21.46 1.16109 21.1767C1.05079 20.9585 1.02087 20.7506 1.0095 20.6046C0.999737 20.4791 1.00044 20.3369 1.00103 20.2185C1.00619 19.1792 0.975203 18.0653 1.38061 17.0866C1.88808 15.8614 2.86145 14.8881 4.08659 14.3806C4.59629 14.1695 5.13457 14.0819 5.74331 14.0404L7.22315 14C7.55241 13.9999 7.88058 14.0104 8.18099 14.1635Z" fill="#801ED7"/>
<path fill-rule="evenodd" clip-rule="evenodd" d="M14.5731 2.91554C14.7803 2.40361 15.3633 2.1566 15.8752 2.36382C17.7058 3.10481 19 4.90006 19 7C19 9.09994 17.7058 10.8952 15.8752 11.6362C15.3633 11.8434 14.7803 11.5964 14.5731 11.0845C14.3658 10.5725 14.6129 9.98953 15.1248 9.7823C16.2261 9.33652 17 8.25744 17 7C17 5.74256 16.2261 4.66348 15.1248 4.2177C14.6129 4.01047 14.3658 3.42748 14.5731 2.91554Z" fill="#801ED7"/>
<path fill-rule="evenodd" clip-rule="evenodd" d="M4.50001 7C4.50001 4.23858 6.73858 2 9.50001 2C12.2614 2 14.5 4.23858 14.5 7C14.5 9.76142 12.2614 12 9.50001 12C6.73858 12 4.50001 9.76142 4.50001 7Z" fill="#801ED7"/>
</svg>
